X:6
T:Khemetiu — Ra Rises, the Horizon Brightens
C:Thalassa OST
M:4/4
L:1/8
Q:1/4=92
%%MIDI program 46
%%MIDI channel 1
V:1 name="Harp" clef=treble
V:2 name="Harp bass" clef=treble
K:C
% Ceremonial, the 5-note scale creates open, floating quality
V:1
|: C4 D4 | F3 G A4 | G4 F4 | D4 C4 |
   A,4 C4 | D2 F2 G4 | A4 G4 | c8 :|
V:2
%%MIDI program 46
%%MIDI channel 2
|: C,4 G,4 | F,4 C4 | G,4 D4 | G,4 C4 |
   A,,4 E,4 | D,4 A,4 | C,4 G,4 | C,8 :|
